src/images/pen-tablet.svg

<svg width="65" height="64" viewBox="0 0 65 64" fill="none" xmlns="http://www.w3.org/2000/svg">
<path d="M43.2778 63.9984H11.6862C8.71471 63.9892 5.86814 62.8166 3.77031 60.7376C1.67248 58.6587 0.494492 55.843 0.494507 52.9075V21.804C0.503847 18.8746 1.68596 16.0678 3.78279 13.9964C5.87961 11.9251 8.72083 10.7573 11.6862 10.748H21.1424C21.6121 10.748 22.0625 10.9324 22.3946 11.2604C22.7267 11.5885 22.9133 12.0334 22.9133 12.4974C22.9133 12.9614 22.7267 13.4063 22.3946 13.7344C22.0625 14.0625 21.6121 14.2468 21.1424 14.2468H11.6862C9.66014 14.256 7.71974 15.0551 6.2871 16.4704C4.85446 17.8856 4.04549 19.8025 4.03617 21.804V52.9075C4.03615 54.9151 4.841 56.8409 6.27464 58.2637C7.70829 59.6865 9.65402 60.4905 11.6862 60.4997H43.2778C44.2871 60.4997 45.2865 60.3033 46.2189 59.9218C47.1514 59.5403 47.9986 58.981 48.7122 58.276C49.4259 57.571 49.992 56.7341 50.3782 55.8129C50.7645 54.8918 50.9633 53.9045 50.9633 52.9075V46.6798C50.9633 46.2159 51.1498 45.7709 51.4819 45.4428C51.814 45.1148 52.2644 44.9305 52.7341 44.9305C53.2037 44.9305 53.6542 45.1148 53.9863 45.4428C54.3183 45.7709 54.5049 46.2159 54.5049 46.6798V52.9075C54.5049 55.849 53.3221 58.67 51.2166 60.75C49.1111 62.8299 46.2554 63.9984 43.2778 63.9984Z" fill="#FF4343"/>
<path d="M52.5925 23.0635C52.1348 23.0639 51.6948 22.8892 51.3647 22.5761C51.0346 22.263 50.8399 21.8358 50.8216 21.3841C50.7511 20.0877 50.3358 18.8327 49.6175 17.7455C49.0393 16.8423 48.2651 16.0775 47.3508 15.5063C46.2874 14.8277 45.0709 14.419 43.8091 14.3167C43.5765 14.3077 43.348 14.2535 43.1366 14.1572C42.9253 14.0608 42.7352 13.9242 42.5773 13.7553C42.4194 13.5863 42.2968 13.3882 42.2164 13.1724C42.1361 12.9565 42.0996 12.7272 42.1091 12.4974C42.0991 12.0543 42.2632 11.6247 42.567 11.2985C42.8707 10.9723 43.2905 10.7751 43.7383 10.748C45.7048 10.8346 47.6122 11.4385 49.2633 12.4974C50.608 13.3339 51.7457 14.4578 52.5925 15.7862C53.6643 17.4172 54.2757 19.3015 54.3633 21.2442C54.3728 21.4739 54.3363 21.7033 54.256 21.9192C54.1757 22.135 54.0531 22.3331 53.8952 22.502C53.7373 22.671 53.5472 22.8076 53.3358 22.9039C53.1244 23.0003 52.8959 23.0545 52.6633 23.0635H52.5925Z" fill="#FF4343"/>
<path d="M36.1944 39.1224H27.4465C26.9769 39.1224 26.5265 38.9381 26.1944 38.61C25.8623 38.282 25.6757 37.837 25.6757 37.3731V28.5563C25.6729 28.0998 25.8509 27.6604 26.1715 27.3318L43.8799 9.8382C44.2109 9.51767 44.6559 9.33813 45.1194 9.33813C45.583 9.33813 46.028 9.51767 46.359 9.8382L49.4403 12.8821C49.7647 13.2091 49.9465 13.6487 49.9465 14.1066C49.9465 14.5645 49.7647 15.0042 49.4403 15.3312C49.2757 15.4951 49.0798 15.6253 48.864 15.7141C48.6482 15.8029 48.4168 15.8486 48.183 15.8486C47.9492 15.8486 47.7178 15.8029 47.502 15.7141C47.2862 15.6253 47.0903 15.4951 46.9257 15.3312L45.1194 13.5818L29.1111 29.291V35.6237H35.5215L51.5653 19.7396L49.759 17.9552C49.4346 17.6282 49.2528 17.1886 49.2528 16.7307C49.2528 16.2728 49.4346 15.8331 49.759 15.5061C49.9237 15.3421 50.1195 15.212 50.3353 15.1232C50.5511 15.0344 50.7826 14.9887 51.0163 14.9887C51.2501 14.9887 51.4816 15.0344 51.6973 15.1232C51.9131 15.212 52.109 15.3421 52.2736 15.5061L55.3194 18.515C55.4854 18.6776 55.6172 18.8711 55.7071 19.0843C55.797 19.2975 55.8433 19.5261 55.8433 19.757C55.8433 19.988 55.797 20.2166 55.7071 20.4298C55.6172 20.643 55.4854 20.8365 55.3194 20.9991L37.6111 38.4926C37.4342 38.6914 37.2162 38.8505 36.9718 38.9591C36.7275 39.0677 36.4624 39.1234 36.1944 39.1224Z" fill="#FF4343"/>
<path d="M54.1861 21.489C53.7132 21.4935 53.2567 21.3181 52.9111 20.9992L49.8653 17.9553C49.5408 17.6283 49.3591 17.1886 49.3591 16.7307C49.3591 16.2728 49.5408 15.8332 49.8653 15.5062C50.0299 15.3422 50.2258 15.2121 50.4416 15.1233C50.6574 15.0344 50.8888 14.9887 51.1226 14.9887C51.3564 14.9887 51.5878 15.0344 51.8036 15.1233C52.0194 15.2121 52.2153 15.3422 52.3799 15.5062L54.1861 17.2905L60.5611 10.9579L54.1861 4.66017L47.7757 10.9579L49.582 12.7422C49.9064 13.0692 50.0882 13.5088 50.0882 13.9667C50.0882 14.4246 49.9064 14.8643 49.582 15.1913C49.4173 15.3553 49.2215 15.4854 49.0057 15.5742C48.7899 15.663 48.5584 15.7088 48.3247 15.7088C48.0909 15.7088 47.8594 15.663 47.6436 15.5742C47.4279 15.4854 47.232 15.3553 47.0674 15.1913L44.0215 12.1824C43.8514 12.0262 43.7163 11.8366 43.6248 11.6257C43.5333 11.4148 43.4875 11.1873 43.4903 10.9579C43.4868 10.7232 43.5322 10.4903 43.6236 10.2736C43.715 10.057 43.8504 9.86115 44.0215 9.69832L52.9111 0.951539C53.0757 0.787574 53.2716 0.657432 53.4874 0.568619C53.7032 0.479807 53.9347 0.434082 54.1684 0.434082C54.4022 0.434082 54.6336 0.479807 54.8494 0.568619C55.0652 0.657432 55.2611 0.787574 55.4257 0.951539L64.3153 9.69832C64.642 10.0312 64.8247 10.4767 64.8247 10.9404C64.8247 11.404 64.642 11.8495 64.3153 12.1824L55.4257 20.9992C55.093 21.3159 54.6482 21.4917 54.1861 21.489Z" fill="#FF4343"/>
</svg>

<svg width="65" height="64" fill="none" xmlns="http://www.w3.org/2000/svg"><path d="M43.278 63.998H11.686a11.296 11.296 0 0 1-7.916-3.26 11.023 11.023 0 0 1-3.275-7.83V21.803a11.024 11.024 0 0 1 3.288-7.808 11.298 11.298 0 0 1 7.903-3.248h9.456c.47 0 .92.184 1.253.512a1.739 1.739 0 0 1 0 2.474 1.782 1.782 0 0 1-1.253.513h-9.456a7.733 7.733 0 0 0-5.399 2.223 7.546 7.546 0 0 0-2.25 5.334v31.104c0 2.007.804 3.933 2.238 5.356a7.733 7.733 0 0 0 5.411 2.236h31.592c1.01 0 2.008-.197 2.94-.578a7.69 7.69 0 0 0 2.494-1.646 7.585 7.585 0 0 0 1.666-2.463 7.511 7.511 0 0 0 .585-2.906V46.68c0-.464.187-.91.519-1.237a1.782 1.782 0 0 1 2.504 0c.332.328.519.773.519 1.237v6.227c0 2.942-1.183 5.763-3.288 7.843a11.298 11.298 0 0 1-7.94 3.248ZM52.593 23.064c-.458 0-.898-.175-1.228-.488a1.74 1.74 0 0 1-.543-1.192 7.32 7.32 0 0 0-1.205-3.639 7.252 7.252 0 0 0-2.266-2.239 7.749 7.749 0 0 0-3.542-1.19 1.79 1.79 0 0 1-1.232-.56 1.748 1.748 0 0 1-.468-1.259c-.01-.443.154-.872.458-1.198a1.744 1.744 0 0 1 1.171-.551c1.967.087 3.874.69 5.525 1.75a10.562 10.562 0 0 1 3.33 3.288 10.825 10.825 0 0 1 1.77 5.458 1.73 1.73 0 0 1-.468 1.258 1.77 1.77 0 0 1-1.232.562h-.07Z" fill="#FF4343"/><path d="M36.194 39.122h-8.748c-.47 0-.92-.184-1.252-.512a1.738 1.738 0 0 1-.518-1.237v-8.817a1.738 1.738 0 0 1 .496-1.224L43.88 9.838a1.782 1.782 0 0 1 2.479 0l3.081 3.044c.325.327.507.767.507 1.225a1.739 1.739 0 0 1-1.083 1.607 1.79 1.79 0 0 1-1.938-.383l-1.807-1.75-16.008 15.71v6.333h6.41L51.566 19.74l-1.806-1.785a1.739 1.739 0 0 1-.506-1.224 1.739 1.739 0 0 1 1.082-1.608 1.79 1.79 0 0 1 1.939.383l3.045 3.009a1.748 1.748 0 0 1 .524 1.242 1.731 1.731 0 0 1-.524 1.242L37.611 38.493a1.874 1.874 0 0 1-1.417.63Z" fill="#FF4343"/><path d="M54.186 21.489c-.473.005-.93-.17-1.275-.49l-3.046-3.044a1.738 1.738 0 0 1 0-2.449 1.771 1.771 0 0 1 1.258-.517 1.788 1.788 0 0 1 1.257.517l1.806 1.785 6.375-6.333-6.375-6.298-6.41 6.298 1.806 1.784a1.739 1.739 0 0 1-.576 2.832 1.79 1.79 0 0 1-1.939-.383l-3.045-3.009a1.645 1.645 0 0 1-.532-1.224 1.695 1.695 0 0 1 .532-1.26l8.89-8.746a1.772 1.772 0 0 1 1.256-.518 1.79 1.79 0 0 1 1.258.518l8.89 8.746a1.773 1.773 0 0 1 0 2.484L55.425 21a1.783 1.783 0 0 1-1.24.49Z" fill="#FF4343"/></svg>
